images/CRBN.svg

<svg height="250" viewBox="0 0 250 250" width="250" xmlns="http://www.w3.org/2000/svg" xmlns:xlink="http://www.w3.org/1999/xlink"><linearGradient id="a" gradientTransform="matrix(.246706 0 0 .188756 -31.765627 -1.817722)" gradientUnits="userSpaceOnUse" x1="240.320007" x2="1117.609985" y1="1108.410034" y2="231.119995"><stop offset=".05" stop-color="#00c1b4"/><stop offset=".35" stop-color="#1870eb"/><stop offset=".49" stop-color="#4e4fd5"/><stop offset=".69" stop-color="#9821b6"/><stop offset=".74" stop-color="#a420aa"/><stop offset=".83" stop-color="#c61f8b"/><stop offset=".95" stop-color="#fb1c58"/><stop offset=".96" stop-color="#ff1c54"/></linearGradient><path d="m142.980469 250c-1.988281 0-3.9375-.398438-5.652344-1.164062l-131.71875-58.597657c-3.449219-1.546875-5.5742188-4.375-5.5820312-7.433593v-116.046876c.0039062-3.066406 2.1406252-5.898437 5.6093752-7.433593l131.53125-58.171875c3.464843-1.527344 7.726562-1.535156 11.203125-.023438l98.175781 42.921875c3.261719 1.421875 4.390625 4.601563 2.53125 7.09375-1.863281 2.492188-6.015625 3.359375-9.273437 1.933594l-97.007813-42.410156-129.167969 57.132812v113.972657l129.363282 57.550781 93.402343-41.476563v-17.832031l-87.824219 38.203125c-3.496093 1.515625-7.785156 1.492188-11.25-.058594l-96.957031-43.566406c-3.4375-1.546875-5.550781-4.371094-5.554687-7.421875v-85.371094c.003906-3.074219 2.15625-5.917969 5.640625-7.449219l97.328125-42.703124c3.464844-1.515626 7.722656-1.515626 11.191406 0l83.488281 36.695312c3.472657 1.527344 5.625 4.355469 5.640625 7.421875.015625 3.070313-2.101562 5.910156-5.558594 7.460937l-25.363281 11.371094c-3.464843 1.550782-7.746093 1.570313-11.238281.058594l-52.527344-22.808594-59.851562 26.613282v52.664062l59.488281 26.878906 45.917969-19.878906-21.710938-9.507812-18.816406 7.777343c-3.484375 1.429688-7.6875 1.363281-11.089844-.171875l-27.050781-12.300781c-3.433594-1.550781-5.542969-4.367187-5.550781-7.417969v-23.859375c0-3.121093 2.210937-5.996093 5.777344-7.507812l27.769531-11.789063c3.414062-1.4375 7.558593-1.429687 10.96875.023438l19.835937 8.539062c3.203125 1.429688 4.3125 4.5625 2.496094 7.035156-1.820312 2.476563-5.894531 3.375-9.15625 2.023438l-18.699219-8.046875-25.410156 10.785156v21.773438l24.820313 11.28125 18.78125-7.765625c3.417968-1.425782 7.5625-1.386719 10.933593.101562l26.417969 11.566406c3.511719 1.535157 5.671875 4.398438 5.660156 7.492188-.007812 3.09375-2.1875 5.945312-5.707031 7.46875l-50.675781 21.9375c-3.5 1.507812-7.789063 1.480469-11.25-.082031l-61.816406-27.921875c-3.414063-1.554688-5.511719-4.367188-5.519532-7.40625v-54.738282c.007813-3.054687 2.128906-5.878906 5.578125-7.421874l62.195313-27.652344c3.460937-1.53125 7.71875-1.546875 11.199218-.042969l52.523438 22.808594 20.703125-9.285157-78.804687-34.640624-94.984376 41.664062v83.300781l94.640626 42.523438 90.128906-39.210938c3.484375-1.515625 7.757812-1.503906 11.21875.039063 3.464844 1.539062 5.597656 4.371094 5.601562 7.4375v21.941406c-.007812 3.066406-2.140625 5.902344-5.605468 7.445312l-95.746094 42.53125c-1.714844.757813-3.660156 1.152344-5.640625 1.148438zm0 0" fill="url(#a)"/></svg>

<svg xmlns="http://www.w3.org/2000/svg" xmlns:xlink="http://www.w3.org/1999/xlink" width="250px" height="250px" viewBox="0 0 250 250" version="1.1">
<defs>
<linearGradient id="linear0" gradientUnits="userSpaceOnUse" x1="240.320007" y1="1108.410034" x2="1117.609985" y2="231.119995" gradientTransform="matrix(0.246706,0,0,0.188756,-31.765627,-1.817722)">
<stop offset="0.05" style="stop-color:rgb(0%,75.686276%,70.588237%);stop-opacity:1;"/>
<stop offset="0.35" style="stop-color:rgb(9.411765%,43.921569%,92.156863%);stop-opacity:1;"/>
<stop offset="0.49" style="stop-color:rgb(30.588236%,30.980393%,83.529413%);stop-opacity:1;"/>
<stop offset="0.69" style="stop-color:rgb(59.607846%,12.941177%,71.372551%);stop-opacity:1;"/>
<stop offset="0.74" style="stop-color:rgb(64.313728%,12.54902%,66.666669%);stop-opacity:1;"/>
<stop offset="0.83" style="stop-color:rgb(77.64706%,12.156863%,54.509807%);stop-opacity:1;"/>
<stop offset="0.95" style="stop-color:rgb(98.431373%,10.980392%,34.509805%);stop-opacity:1;"/>
<stop offset="0.96" style="stop-color:rgb(100%,10.980392%,32.941177%);stop-opacity:1;"/>
</linearGradient>
</defs>
<g id="surface1">
<path style=" stroke:none;fill-rule:nonzero;fill:url(#linear0);" d="M 142.980469 250 C 140.992188 250 139.042969 249.601562 137.328125 248.835938 L 5.609375 190.238281 C 2.160156 188.691406 0.0351562 185.863281 0.0273438 182.804688 L 0.0273438 66.757812 C 0.03125 63.691406 2.167969 60.859375 5.636719 59.324219 L 137.167969 1.152344 C 140.632812 -0.375 144.894531 -0.382812 148.371094 1.128906 L 246.546875 44.050781 C 249.808594 45.472656 250.9375 48.652344 249.078125 51.144531 C 247.214844 53.636719 243.0625 54.503906 239.804688 53.078125 L 142.796875 10.667969 L 13.628906 67.800781 L 13.628906 181.773438 L 142.992188 239.324219 L 236.394531 197.847656 L 236.394531 180.015625 L 148.570312 218.21875 C 145.074219 219.734375 140.785156 219.710938 137.320312 218.160156 L 40.363281 174.59375 C 36.925781 173.046875 34.8125 170.222656 34.808594 167.171875 L 34.808594 81.800781 C 34.8125 78.726562 36.964844 75.882812 40.449219 74.351562 L 137.777344 31.648438 C 141.242188 30.132812 145.5 30.132812 148.96875 31.648438 L 232.457031 68.34375 C 235.929688 69.871094 238.082031 72.699219 238.097656 75.765625 C 238.113281 78.835938 235.996094 81.675781 232.539062 83.226562 L 207.175781 94.597656 C 203.710938 96.148438 199.429688 96.167969 195.9375 94.65625 L 143.410156 71.847656 L 83.558594 98.460938 L 83.558594 151.125 L 143.046875 178.003906 L 188.964844 158.125 L 167.253906 148.617188 L 148.4375 156.394531 C 144.953125 157.824219 140.75 157.757812 137.347656 156.222656 L 110.296875 143.921875 C 106.863281 142.371094 104.753906 139.554688 104.746094 136.503906 L 104.746094 112.644531 C 104.746094 109.523438 106.957031 106.648438 110.523438 105.136719 L 138.292969 93.347656 C 141.707031 91.910156 145.851562 91.917969 149.261719 93.371094 L 169.097656 101.910156 C 172.300781 103.339844 173.410156 106.472656 171.59375 108.945312 C 169.773438 111.421875 165.699219 112.320312 162.4375 110.96875 L 143.738281 102.921875 L 118.328125 113.707031 L 118.328125 135.480469 L 143.148438 146.761719 L 161.929688 138.996094 C 165.347656 137.570312 169.492188 137.609375 172.863281 139.097656 L 199.28125 150.664062 C 202.792969 152.199219 204.953125 155.0625 204.941406 158.15625 C 204.933594 161.25 202.753906 164.101562 199.234375 165.625 L 148.558594 187.5625 C 145.058594 189.070312 140.769531 189.042969 137.308594 187.480469 L 75.492188 159.558594 C 72.078125 158.003906 69.980469 155.191406 69.972656 152.152344 L 69.972656 97.414062 C 69.980469 94.359375 72.101562 91.535156 75.550781 89.992188 L 137.746094 62.339844 C 141.207031 60.808594 145.464844 60.792969 148.945312 62.296875 L 201.46875 85.105469 L 222.171875 75.820312 L 143.367188 41.179688 L 48.382812 82.84375 L 48.382812 166.144531 L 143.023438 208.667969 L 233.152344 169.457031 C 236.636719 167.941406 240.910156 167.953125 244.371094 169.496094 C 247.835938 171.035156 249.96875 173.867188 249.972656 176.933594 L 249.972656 198.875 C 249.964844 201.941406 247.832031 204.777344 244.367188 206.320312 L 148.621094 248.851562 C 146.90625 249.609375 144.960938 250.003906 142.980469 250 Z M 142.980469 250 "/>
</g>
</svg>
